hero/solid/arrow-top-right-on-square.svg

<svg width="24" height="24" viewBox="0 0 24 24" fill="none" xmlns="http://www.w3.org/2000/svg">
<path fill-rule="evenodd" clip-rule="evenodd" d="M15.75 2.25L21 2.25C21.1989 2.25 21.3897 2.32902 21.5303 2.46967C21.671 2.61032 21.75 2.80109 21.75 3V8.25C21.75 8.66421 21.4142 9 21 9C20.5858 9 20.25 8.66421 20.25 8.25V4.81066L8.03033 17.0303C7.73744 17.3232 7.26256 17.3232 6.96967 17.0303C6.67678 16.7374 6.67678 16.2626 6.96967 15.9697L19.1893 3.75L15.75 3.75C15.3358 3.75 15 3.41421 15 3C15 2.58579 15.3358 2.25 15.75 2.25ZM5.25 6.75C4.42157 6.75 3.75 7.42157 3.75 8.25V18.75C3.75 19.5784 4.42157 20.25 5.25 20.25H15.75C16.5784 20.25 17.25 19.5784 17.25 18.75V10.5C17.25 10.0858 17.5858 9.75 18 9.75C18.4142 9.75 18.75 10.0858 18.75 10.5V18.75C18.75 20.4069 17.4069 21.75 15.75 21.75H5.25C3.59315 21.75 2.25 20.4069 2.25 18.75V8.25C2.25 6.59315 3.59315 5.25 5.25 5.25H13.5C13.9142 5.25 14.25 5.58579 14.25 6C14.25 6.41421 13.9142 6.75 13.5 6.75H5.25Z" fill="#0F172A"/>
</svg>

<svg viewBox="0 0 24 24" xmlns="http://www.w3.org/2000/svg"><path fill-rule="evenodd" d="M15.75 2.25H21v0c.41 0 .75.33.75.75v5.25 0c0 .41-.34.75-.75.75 -.42 0-.75-.34-.75-.75V4.81L8.03 17.03v0c-.31.28-.78.26-1.06-.04 -.27-.29-.27-.74 0-1.03L19.19 3.74h-3.44v0c-.42 0-.75-.34-.75-.75 0-.42.33-.75.75-.75Zm-10.5 4.5v0c-.83 0-1.5.67-1.5 1.5v10.5 0c0 .82.67 1.5 1.5 1.5h10.5v0c.82 0 1.5-.68 1.5-1.5V10.5v0c0-.42.33-.75.75-.75 .41 0 .75.33.75.75v8.25 0c0 1.65-1.35 3-3 3H5.25v0c-1.66 0-3-1.35-3-3V8.25v0c0-1.66 1.34-3 3-3h8.25v0c.41 0 .75.33.75.75 0 .41-.34.75-.75.75H5.25Z"/></svg>
